modules/framework7-icons/icons/arrow_up_fill.svg

<?xml version="1.0" encoding="UTF-8"?>
<svg width="50px" height="50px" viewBox="0 0 50 50" version="1.1" xmlns="http://www.w3.org/2000/svg" xmlns:xlink="http://www.w3.org/1999/xlink">
    <!-- Generator: Sketch 40.1 (33804) - http://www.bohemiancoding.com/sketch -->
    <title>arrow_up_fill</title>
    <desc>Created with Sketch.</desc>
    <defs></defs>
    <g id="Page-1" stroke="none" stroke-width="1" fill="none" fill-rule="evenodd">
        <g id="arrow_up_fill" fill="#000000">
            <path d="M25,50 C38.8071187,50 50,38.8071187 50,25 C50,11.1928813 38.8071187,0 25,0 C11.1928813,0 0,11.1928813 0,25 C0,38.8071187 11.1928813,50 25,50 Z M26.9509278,18.7812336 L26.9509278,36.9519423 C26.9509278,38.0569891 26.0631982,38.9528065 24.9509278,38.9528065 C23.8463583,38.9528065 22.9509278,38.0511793 22.9509278,36.9519423 L22.9509278,18.7812336 L16.4119215,25.3202399 C15.6327907,26.0993708 14.3734607,26.1032615 13.5869668,25.3167675 C12.8059182,24.535719 12.8039329,23.2713744 13.5834944,22.4918128 L23.4899341,12.5853731 C23.9019097,12.1733975 24.4481444,11.9781715 24.9877443,12.0019342 L24.9877443,12.0019342 C25.5029877,11.9981031 26.0190251,12.1924767 26.4119215,12.5853731 L36.3183612,22.4918128 C37.0974921,23.2709437 37.1013828,24.5302736 36.3148888,25.3167675 C35.5338403,26.0978161 34.2694956,26.0998015 33.4899341,25.3202399 L26.9509278,18.7812336 L26.9509278,18.7812336 Z" id="Combined-Shape"></path>
        </g>
    </g>
</svg>

<svg width="50" height="50" viewBox="0 0 50 50" xmlns="http://www.w3.org/2000/svg"><path d="M25 50c13.807 0 25-11.193 25-25S38.807 0 25 0 0 11.193 0 25s11.193 25 25 25zm1.95-31.219v18.17c0 1.106-.887 2.002-2 2.002-1.104 0-2-.902-2-2.001v-18.17l-6.538 6.538c-.78.78-2.039.783-2.825-.003a1.997 1.997 0 0 1-.004-2.825l9.907-9.907a1.988 1.988 0 0 1 1.498-.583 1.986 1.986 0 0 1 1.424.583l9.906 9.907c.78.779.783 2.038-.003 2.825a1.997 1.997 0 0 1-2.825.003l-6.54-6.539z" fill="#000" fill-rule="evenodd"/></svg>
